src/images/logos/app-logo.svg

<svg width="492" height="494" viewBox="0 0 492 494" fill="none" xmlns="http://www.w3.org/2000/svg">
<path d="M270.652 0H371.119C384.826 0 397.089 7.95912 401.874 19.9606L490.058 241.148C490.739 242.854 490.747 244.731 490.081 246.443L489.587 247.714L489.582 247.726L401.769 473.524C397.054 485.646 384.726 493.716 370.923 493.716H270.471C264.822 493.716 260.862 488.506 262.724 483.523L353.271 241.148L262.946 10.2988C260.989 5.29678 264.952 0 270.652 0Z" fill="black"/>
<path d="M8.39276 0H108.86C122.567 0 134.83 7.95912 139.614 19.9606L227.799 241.148C228.479 242.854 228.487 244.731 227.822 246.443L227.327 247.714L227.322 247.726L139.509 473.524C134.795 485.646 122.467 493.716 108.664 493.716H8.2115C2.56253 493.716 -1.39662 488.506 0.465105 483.523L91.0122 241.148L0.686825 10.2988C-1.27034 5.29678 2.69291 0 8.39276 0Z" fill="black"/>
<path d="M338.826 194H197V301H338.826L362 245.971L338.826 194Z" fill="black"/>
</svg>

<svg xmlns="http://www.w3.org/2000/svg" width="550" height="494" fill="none"><path fill="#D631B9" d="M270.65 0h100.47c13.7 0 25.97 7.96 30.75 19.96l88.19 221.19a7.2 7.2 0 0 1 .02 5.3l-.5 1.26v.02l-87.81 225.8c-4.72 12.12-17.04 20.19-30.85 20.19H270.47c-5.65 0-9.6-5.21-7.75-10.2l90.55-242.37L262.95 10.3c-1.96-5 2-10.3 7.7-10.3Z"/><path fill="#D631B9" d="M8.4 0h100.46c13.7 0 25.97 7.96 30.75 19.96l88.19 221.19a7.2 7.2 0 0 1 .02 5.3l-.5 1.26v.02l-87.81 225.8c-4.72 12.12-17.04 20.19-30.85 20.19H8.21c-5.65 0-9.6-5.21-7.74-10.2L91 241.15.7 10.3c-1.96-5 2-10.3 7.7-10.3Z"/><path fill="#D631B9" d="M338.83 194H197v107h141.83L362 245.97 338.83 194Z"/><path fill="#fff" d="M328.65 0h100.47c13.7 0 25.97 7.96 30.75 19.96l88.19 221.19a7.2 7.2 0 0 1 .02 5.3l-.5 1.26v.02l-87.81 225.8c-4.72 12.12-17.04 20.19-30.85 20.19H328.47c-5.65 0-9.6-5.21-7.75-10.2l90.55-242.37L320.95 10.3c-1.96-5 2-10.3 7.7-10.3Z"/><path fill="#fff" d="M66.4 0h100.46c13.7 0 25.97 7.96 30.75 19.96l88.19 221.19a7.2 7.2 0 0 1 .02 5.3l-.5 1.26v.02l-87.81 225.8c-4.72 12.12-17.04 20.19-30.85 20.19H66.21c-5.65 0-9.6-5.21-7.74-10.2L149 241.15 58.7 10.3c-1.96-5 2-10.3 7.7-10.3Z"/><path fill="#fff" d="M396.83 194H255v107h141.83L420 245.97 396.83 194Z"/></svg>
